app/assets/images/icon-logo.svg

<svg width="41" height="28" viewBox="0 0 41 28" fill="none" xmlns="http://www.w3.org/2000/svg">
<g filter="url(#filter0_di_33_11914)">
<path d="M8.42229 20.4637H3.22841C1.99769 20.4637 1 21.5143 1 22.8102C1 24.1061 1.99769 25.1567 3.22841 25.1567H8.42229C9.653 25.1567 10.6507 24.1061 10.6507 22.8102C10.6507 21.5143 9.653 20.4637 8.42229 20.4637Z" fill="#949494"/>
<path d="M31.6524 25.1555H36.8463C38.077 25.1555 39.0747 24.105 39.0747 22.8091C39.0747 21.5132 38.077 20.4626 36.8463 20.4626H31.6524C30.4217 20.4626 29.424 21.5132 29.424 22.8091C29.424 24.105 30.4217 25.1555 31.6524 25.1555Z" fill="#949494"/>
<path d="M22.1383 20.4478H17.9103C16.6796 20.4478 15.6819 21.4983 15.6819 22.7942C15.6819 24.0902 16.6796 25.1407 17.9103 25.1407H22.1383C23.369 25.1407 24.3667 24.0902 24.3667 22.7942C24.3667 21.4983 23.369 20.4478 22.1383 20.4478Z" fill="#949494"/>
<path d="M29.6343 18.4033H34.6358C35.8666 18.4033 36.8643 17.3528 36.8643 16.0568C36.8643 14.7609 35.8666 13.7104 34.6358 13.7104H29.6343C28.4036 13.7104 27.4059 14.7609 27.4059 16.0568C27.4059 17.3528 28.4036 18.4033 29.6343 18.4033Z" fill="#949494"/>
<path d="M10.3561 13.7099H5.35463C4.12391 13.7099 3.12622 14.7605 3.12622 16.0564C3.12622 17.3523 4.12391 18.4029 5.35463 18.4029H10.3561C11.5869 18.4029 12.5845 17.3523 12.5845 16.0564C12.5845 14.7605 11.5869 13.7099 10.3561 13.7099Z" fill="#949494"/>
<path d="M23.7442 13.695H16.3017C15.0709 13.695 14.0732 14.7456 14.0732 16.0415C14.0732 17.3374 15.0709 18.388 16.3017 18.388H23.7442C24.9749 18.388 25.9726 17.3374 25.9726 16.0415C25.9726 14.7456 24.9749 13.695 23.7442 13.695Z" fill="#949494"/>
<path d="M17.0643 6.75378H7.56752C6.3368 6.75378 5.33911 7.80434 5.33911 9.10026C5.33911 10.3962 6.3368 11.4467 7.56752 11.4467H17.0643C18.295 11.4467 19.2927 10.3962 19.2927 9.10026C19.2927 7.80434 18.295 6.75378 17.0643 6.75378Z" fill="#949494"/>
<path d="M23.528 11.4456L32.4183 11.4456C33.649 11.4456 34.6467 10.3951 34.6467 9.09914C34.6467 7.80322 33.649 6.75267 32.4183 6.75267L23.528 6.75267C22.2973 6.75267 21.2996 7.80322 21.2996 9.09914C21.2996 10.3951 22.2973 11.4456 23.528 11.4456Z" fill="#949494"/>
<path d="M30.2804 0H25.2677C24.037 0 23.0393 1.05055 23.0393 2.34647C23.0393 3.6424 24.037 4.69295 25.2677 4.69295H30.2804C31.5111 4.69295 32.5088 3.6424 32.5088 2.34647C32.5088 1.05055 31.5111 0 30.2804 0Z" fill="#949494"/>
<path d="M14.711 0H9.69838C8.46766 0 7.46997 1.05055 7.46997 2.34647C7.46997 3.6424 8.46766 4.69295 9.69838 4.69295H14.711C15.9417 4.69295 16.9394 3.6424 16.9394 2.34647C16.9394 1.05055 15.9417 0 14.711 0Z" fill="#949494"/>
</g>
<defs>
<filter id="filter0_di_33_11914" x="0" y="0" width="40.0747" height="27.1567" filterUnits="userSpaceOnUse" color-interpolation-filters="sRGB">
<feFlood flood-opacity="0" result="BackgroundImageFix"/>
<feColorMatrix in="SourceAlpha" type="matrix" values="0 0 0 0 0 0 0 0 0 0 0 0 0 0 0 0 0 0 127 0" result="hardAlpha"/>
<feOffset dy="1"/>
<feGaussianBlur stdDeviation="0.5"/>
<feComposite in2="hardAlpha" operator="out"/>
<feColorMatrix type="matrix" values="0 0 0 0 1 0 0 0 0 1 0 0 0 0 1 0 0 0 0.8 0"/>
<feBlend mode="normal" in2="BackgroundImageFix" result="effect1_dropShadow_33_11914"/>
<feBlend mode="normal" in="SourceGraphic" in2="effect1_dropShadow_33_11914" result="shape"/>
<feColorMatrix in="SourceAlpha" type="matrix" values="0 0 0 0 0 0 0 0 0 0 0 0 0 0 0 0 0 0 127 0" result="hardAlpha"/>
<feOffset dy="1"/>
<feGaussianBlur stdDeviation="1"/>
<feComposite in2="hardAlpha" operator="arithmetic" k2="-1" k3="1"/>
<feColorMatrix type="matrix" values="0 0 0 0 0 0 0 0 0 0 0 0 0 0 0 0 0 0 0.2 0"/>
<feBlend mode="normal" in2="shape" result="effect2_innerShadow_33_11914"/>
</filter>
</defs>
</svg>

<svg width="41" height="28" fill="none" xmlns="http://www.w3.org/2000/svg"><g filter="url(#filter0_di_33_11914)"><path d="M8.422 20.464H3.228C1.998 20.464 1 21.514 1 22.81s.998 2.347 2.228 2.347h5.194c1.231 0 2.229-1.05 2.229-2.347 0-1.296-.998-2.346-2.229-2.346zm23.23 4.692h5.194c1.231 0 2.229-1.051 2.229-2.347s-.998-2.346-2.229-2.346h-5.194c-1.23 0-2.228 1.05-2.228 2.346s.998 2.346 2.228 2.346zm-9.514-4.708H17.91c-1.23 0-2.228 1.05-2.228 2.346s.998 2.347 2.228 2.347h4.228c1.231 0 2.229-1.05 2.229-2.347 0-1.296-.998-2.346-2.229-2.346zm7.496-2.045h5.002c1.23 0 2.228-1.05 2.228-2.346s-.997-2.347-2.228-2.347h-5.002c-1.23 0-2.228 1.05-2.228 2.347 0 1.296.998 2.346 2.228 2.346zM10.356 13.71H5.355c-1.231 0-2.229 1.05-2.229 2.346s.998 2.347 2.229 2.347h5.001c1.23 0 2.229-1.05 2.229-2.347 0-1.296-.998-2.346-2.229-2.346zm13.388-.015h-7.442c-1.231 0-2.229 1.05-2.229 2.346s.998 2.347 2.229 2.347h7.442c1.23 0 2.229-1.05 2.229-2.347 0-1.295-.998-2.346-2.229-2.346zm-6.68-6.941H7.568c-1.231 0-2.229 1.05-2.229 2.346s.998 2.347 2.229 2.347h9.496c1.231 0 2.229-1.05 2.229-2.347 0-1.296-.998-2.346-2.229-2.346zm6.464 4.692h8.89c1.231 0 2.229-1.05 2.229-2.347 0-1.296-.998-2.346-2.229-2.346h-8.89c-1.23 0-2.228 1.05-2.228 2.346s.997 2.347 2.228 2.347zM30.28 0h-5.012c-1.231 0-2.229 1.05-2.229 2.346s.998 2.347 2.229 2.347h5.012c1.231 0 2.229-1.05 2.229-2.347C32.509 1.051 31.51 0 30.28 0zM14.711 0H9.698C8.468 0 7.47 1.05 7.47 2.346s.998 2.347 2.228 2.347h5.013c1.23 0 2.228-1.05 2.228-2.347C16.94 1.051 15.942 0 14.711 0z" fill="#949494"/></g><defs><filter id="filter0_di_33_11914" x="0" y="0" width="40.075" height="27.157" filterUnits="userSpaceOnUse" color-interpolation-filters="sRGB"><feFlood flood-opacity="0" result="BackgroundImageFix"/><feColorMatrix in="SourceAlpha" values="0 0 0 0 0 0 0 0 0 0 0 0 0 0 0 0 0 0 127 0" result="hardAlpha"/><feOffset dy="1"/><feGaussianBlur stdDeviation=".5"/><feComposite in2="hardAlpha" operator="out"/><feColorMatrix values="0 0 0 0 1 0 0 0 0 1 0 0 0 0 1 0 0 0 0.8 0"/><feBlend in2="BackgroundImageFix" result="effect1_dropShadow_33_11914"/><feBlend in="SourceGraphic" in2="effect1_dropShadow_33_11914" result="shape"/><feColorMatrix in="SourceAlpha" values="0 0 0 0 0 0 0 0 0 0 0 0 0 0 0 0 0 0 127 0" result="hardAlpha"/><feOffset dy="1"/><feGaussianBlur stdDeviation="1"/><feComposite in2="hardAlpha" operator="arithmetic" k2="-1" k3="1"/><feColorMatrix values="0 0 0 0 0 0 0 0 0 0 0 0 0 0 0 0 0 0 0.2 0"/><feBlend in2="shape" result="effect2_innerShadow_33_11914"/></filter></defs></svg>
